asset_auto_exported/icn_topup_invoice.svg

<?xml version="1.0" encoding="UTF-8"?>
<svg width="24px" height="24px" viewBox="0 0 24 24" version="1.1" xmlns="http://www.w3.org/2000/svg" xmlns:xlink="http://www.w3.org/1999/xlink">
    <title>icn_topup_invoice</title>
    <g id="Quique" stroke="none" stroke-width="1" fill="none" fill-rule="evenodd">
        <g id="Assets/Global/24/TopupInvoice" fill="#000000" fill-rule="nonzero">
            <g id="-----ICON-LAYERS-----">
                <path d="M12,0 C18.627,0 24,5.373 24,12 C24,18.627 18.627,24 12,24 C5.373,24 0,18.627 0,12 C0,5.373 5.373,0 12,0 Z M17.9938,11.2913 C17.648622,11.2913 17.3688,11.571122 17.3688,11.9163 L17.3688,11.9163 L17.3688,14.6983 L17.3624657,14.830348 C17.2954135,15.5257529 16.7042795,16.0713 15.9838,16.0713 L15.9838,16.0713 L8.6025,16.0704692 L8.6034,14.772 C8.6034,14.581 8.3794,14.48 8.2364,14.606 L8.2364,14.606 L6.1084,16.501 C6.0104,16.589 6.0094,16.741 6.1064,16.829 L6.1064,16.829 L8.2344,18.771 C8.3764,18.899 8.6034,18.799 8.6034,18.607 L8.6034,18.607 L8.6025,17.3204692 L15.9838,17.3213 L16.1503307,17.3161416 C17.5271129,17.2305951 18.6188,16.0916935 18.6188,14.6983 L18.6188,14.6983 L18.6188,11.9163 L18.6120234,11.8239421 C18.5673831,11.5225579 18.3075982,11.2913 17.9938,11.2913 Z M13.6282,9.5415 L10.5312,9.5415 L10.4388421,9.5482766 C10.1374579,9.59291686 9.9062,9.85270185 9.9062,10.1665 L9.9062,10.1665 L9.9062,13.8545 L9.9129766,13.9468579 C9.95761686,14.2482421 10.2174018,14.4795 10.5312,14.4795 L10.5312,14.4795 L10.6235579,14.4727234 C10.9249421,14.4280831 11.1562,14.1682982 11.1562,13.8545 L11.1562,13.8545 L11.1555,12.7974692 L12.4277,12.7979 L12.5200579,12.7911234 C12.8214421,12.7464831 13.0527,12.4866982 13.0527,12.1729 C13.0527,11.827722 12.772878,11.5479 12.4277,11.5479 L12.4277,11.5479 L11.1555,11.5474692 L11.156,10.791 L13.6282,10.7915 L13.7205579,10.7847234 C14.0219421,10.7400831 14.2532,10.4802982 14.2532,10.1665 C14.2532,9.82132203 13.973378,9.5415 13.6282,9.5415 L13.6282,9.5415 Z M15.7949,5.4595 C15.6529,5.3305 15.4259,5.4305 15.4259,5.6225 L15.4259,5.6225 L15.4255,6.90746919 L8.0455,6.9082 L7.8789693,6.91335836 C6.50218707,6.99890494 5.4105,8.13780651 5.4105,9.5312 L5.4105,9.5312 L5.4105,11.8662 L5.4172766,11.9585579 C5.46191686,12.2599421 5.72170185,12.4912 6.0355,12.4912 C6.38067797,12.4912 6.6605,12.211378 6.6605,11.8662 L6.6605,11.8662 L6.6605,9.5312 L6.66683433,9.39915203 C6.73388649,8.70374707 7.32502048,8.1582 8.0455,8.1582 L8.0455,8.1582 L15.4255,8.15746919 L15.4259,9.4585 C15.4259,9.6495 15.6499,9.7495 15.7929,9.6235 L15.7929,9.6235 L17.9209,7.7285 C18.0189,7.6415 18.0199,7.4895 17.9229,7.4005 L17.9229,7.4005 Z" id="Combined-Shape"></path>
            </g>
        </g>
    </g>
</svg>

<svg width="24" height="24" viewBox="0 0 24 24" xmlns="http://www.w3.org/2000/svg"><path d="M12 0c6.627 0 12 5.373 12 12s-5.373 12-12 12S0 18.627 0 12 5.373 0 12 0zm5.994 11.291a.625.625 0 00-.625.625v2.782l-.007.132a1.381 1.381 0 01-1.378 1.241H8.602l.001-1.299a.22.22 0 00-.367-.166l-2.128 1.895a.22.22 0 00-.002.328l2.128 1.942a.22.22 0 00.37-.164l-.002-1.287 7.382.001.166-.005a2.629 2.629 0 002.469-2.618v-2.782l-.007-.092a.625.625 0 00-.618-.533zm-4.366-1.75h-3.097l-.092.007a.625.625 0 00-.533.618v3.688l.007.093a.625.625 0 00.618.533l.093-.007a.625.625 0 00.532-.619v-1.057h1.272l.092-.006a.625.625 0 00-.092-1.243h-1.273l.001-.757h2.472l.093-.006a.625.625 0 00-.093-1.244zm2.167-4.082a.22.22 0 00-.37.163v1.285l-7.38.001-.166.005a2.629 2.629 0 00-2.468 2.618v2.335l.006.093a.625.625 0 001.244-.093V9.531l.006-.132a1.381 1.381 0 011.379-1.24l7.38-.002V9.46a.22.22 0 00.367.165l2.128-1.896a.22.22 0 00.002-.327z" fill="#000" fill-rule="nonzero"/></svg>
